X:1

T:White Wings

M:6/8

L:1/8

R:Jig

S:Kerr – Merry Melodies, vol. 3, No. 298  (c. 1880’s)

Z:AK/Fiddler’s Companion

K:D

a3 f2e|dcd edB|Ade fgf|fe^d e3|a3 f2e|dcd edB|Ade fgf|eBc d2z:|

|:e3 a2c|BAB cde|f^ga edc|cB^A B3|c3 e2c|dcd a^gf|efe edc|BF^G A2z:|

 

WHITE WINGS [2].  English, Waltz. D Major. Standard tuning. AABB. Kennedy (Fiddler’s Tune-Book: Slip Jigs and Waltzes), 1999; No. 181, pg. 48.

 

WHITECROSS. Irish, Reel. G Major/Mixolydian (‘A’ part) & G Dorian (‘B’ part). Standard tuning. AA’B. Composed by County Cavan/Philadelphia fiddler and composer Ed Reavy (1898-1988) for lifelong friend and musical supporter Lou Quinn, who came from a locale near Whitecross, County Armagh. Reavy (The Collected Compositions of Ed Reavy), No. 55, pgs. 59-60.

